Simply white circles/scalable/actions/document-revert.svg

<svg xmlns="http://www.w3.org/2000/svg" width="24" height="24">
  <path fill="none" stroke="#e6e6e6" stroke-linecap="round" stroke-linejoin="round" stroke-width="1.86660326" d="M4.027356 1.5055666V22.494434h15.94529v-9.545507h-5.261282v4.61026l-2.241585-2.215552h.972879v-2.394708h1.268706v-2.191595l-1.268706.595818v-.835389h-.938506l2.207212-2.2332586v2.4728296l5.261282-2.4728296V6.7658035l-5.261282-5.2602369zm8.28201 9.2090584v1.170796l-2.161385 1.015592-.04687.04792h2.208256v2.236387l-2.262422-2.236385.101042-.047935z"/>
</svg>

<?xml version="1.0" encoding="UTF-8" standalone="no"?>
<svg
   xmlns:dc="http://purl.org/dc/elements/1.1/"
   xmlns:cc="http://creativecommons.org/ns#"
   xmlns:rdf="http://www.w3.org/1999/02/22-rdf-syntax-ns#"
   xmlns:svg="http://www.w3.org/2000/svg"
   xmlns="http://www.w3.org/2000/svg"
   xmlns:sodipodi="http://sodipodi.sourceforge.net/DTD/sodipodi-0.dtd"
   xmlns:inkscape="http://www.inkscape.org/namespaces/inkscape"
   viewBox="0 0 24 24"
   version="1.1"
   id="svg4"
   sodipodi:docname="document-revert.svg"
   inkscape:version="0.92.3 (2405546, 2018-03-11)"
   width="24"
   height="24"
   style="fill:#000000">
  <metadata
     id="metadata10">
    <rdf:RDF>
      <cc:Work
         rdf:about="">
        <dc:format>image/svg+xml</dc:format>
        <dc:type
           rdf:resource="http://purl.org/dc/dcmitype/StillImage" />
        <dc:title></dc:title>
      </cc:Work>
    </rdf:RDF>
  </metadata>
  <defs
     id="defs8" />
  <sodipodi:namedview
     pagecolor="#ffffff"
     bordercolor="#666666"
     borderopacity="1"
     objecttolerance="10"
     gridtolerance="10"
     guidetolerance="10"
     inkscape:pageopacity="0"
     inkscape:pageshadow="2"
     inkscape:window-width="1366"
     inkscape:window-height="719"
     id="namedview6"
     showgrid="false"
     inkscape:zoom="22.5"
     inkscape:cx="11.4"
     inkscape:cy="11.822222"
     inkscape:window-x="0"
     inkscape:window-y="25"
     inkscape:window-maximized="1"
     inkscape:current-layer="svg4"
     showguides="true"
     inkscape:guide-bbox="true" />
  <path
     inkscape:connector-curvature="0"
     style="fill:none;stroke:#e6e6e6;stroke-width:1.86660326;stroke-linecap:round;stroke-linejoin:round;stroke-miterlimit:4;stroke-dasharray:none;stroke-opacity:1"
     d="M 4.027356,1.5055666 V 22.494434 h 15.94529 v -9.545507 h -5.261282 v 4.61026 l -2.241585,-2.215552 h 0.972879 v -2.394708 h 1.268706 V 10.757332 L 13.442658,11.35315 V 10.517761 H 12.504152 L 14.711364,8.2845024 V 10.757332 L 19.972646,8.2845024 V 6.7658035 L 14.711364,1.5055666 Z m 8.28201,9.2090584 v 1.170796 l -2.161385,1.015592 -0.04687,0.04792 h 2.208256 V 15.18532 L 10.046945,12.948935 10.147987,12.901 Z"
     id="path841" />
</svg>
